icons/child_cognition_fill.svg

<svg width="48" height="48" viewBox="0 0 48 48" fill="none" xmlns="http://www.w3.org/2000/svg">
<path fill-rule="evenodd" clip-rule="evenodd" d="M37.2645 25.9548L37.0988 25.6016C36.3844 24.0782 36.1757 22.4641 36.1123 21.0322C36.0804 20.3106 36.0846 19.5974 36.0917 18.9418C36.0927 18.8516 36.0937 18.7629 36.0947 18.6753C36.1012 18.1095 36.1072 17.5956 36.0956 17.1007C36.0466 15.151 35.433 13.2527 34.3231 11.6276C33.0589 10.059 31.4073 8.82589 29.5195 8.04746L29.4867 8.03392L29.4544 8.01923C26.8991 6.85779 24.1144 6.25813 21.2955 6.26358L21.2933 6.26358C17.7461 6.26649 14.3527 7.65263 11.8577 10.1055C9.36392 12.5571 7.97153 15.8725 7.97436 19.3202C7.97603 21.3645 8.57089 23.6957 9.60438 25.8524C10.6403 28.0142 12.0437 29.8488 13.5211 30.9854L14.3008 31.5852L14.3081 40.5007C14.6333 40.9027 15.2648 41.3989 16.2118 41.829C17.3706 42.3553 18.5353 42.568 19.2092 42.5124L19.2904 42.5057L19.3719 42.5056C21.3282 42.504 22.2432 41.9505 22.6369 41.6139C22.7796 41.4919 22.8788 41.3771 22.9453 41.2867L22.9408 35.7513L25.4383 36.3947L25.4395 36.395L25.4405 36.3952L25.4418 36.3956L25.4539 36.3985C25.4694 36.4023 25.4961 36.4087 25.5332 36.4173C25.6074 36.4344 25.7229 36.46 25.8737 36.4901C26.176 36.5505 26.616 36.6283 27.1463 36.6933C28.223 36.8253 29.5965 36.8947 30.9225 36.6991C32.2599 36.5018 33.3743 36.0618 34.1403 35.3276C34.8538 34.6438 35.4814 33.4989 35.4796 31.4027L35.4782 29.6928L37.1594 29.4268L37.1607 29.4266L37.1689 29.4252C37.1748 29.4242 37.1834 29.4226 37.1945 29.4205C37.2054 29.4185 37.2188 29.4159 37.2345 29.4128C37.2977 29.4003 37.3956 29.3796 37.5171 29.3493C37.7659 29.2873 38.0839 29.1926 38.3937 29.0617C38.7155 28.9256 38.9469 28.7844 39.0833 28.664C39.1108 28.6398 39.1301 28.6204 39.1433 28.6059C39.1384 28.5522 39.1197 28.4422 39.0497 28.2643C38.9402 27.9861 38.7533 27.6646 38.514 27.3322C38.2801 27.0072 38.0313 26.7203 37.8376 26.5124C37.7422 26.41 37.6638 26.3306 37.6121 26.2795C37.5989 26.2665 37.5876 26.2554 37.5782 26.2463C37.5692 26.2376 37.562 26.2306 37.5567 26.2256L37.5485 26.2178L37.5474 26.2168L37.2645 25.9548ZM24.9429 38.3323C24.9429 38.3323 25.7449 38.5389 26.9432 38.6833C30.4842 39.1101 37.4859 38.9942 37.4796 31.401C37.4796 31.401 40.782 30.8786 41.115 28.9907C41.4479 27.1029 38.9096 24.7524 38.9096 24.7524C38.0456 22.91 38.0708 20.7396 38.0945 18.7021C38.1011 18.1388 38.1075 17.5856 38.095 17.0524C38.036 14.6879 37.2842 12.3901 35.9295 10.434C34.4463 8.5721 32.502 7.11394 30.282 6.19849C27.4647 4.91797 24.3963 4.25758 21.2916 4.26358C17.226 4.26691 13.3281 5.85528 10.4556 8.67925C7.58303 11.5032 5.97109 15.3315 5.97436 19.3219C5.97829 24.1228 8.73175 29.8243 12.3016 32.5706L12.3086 41.0646C13.3226 43.187 17.1426 44.6896 19.3736 44.5056C24.1118 44.5018 24.9457 41.7655 24.9457 41.7655L24.9429 38.3323Z" fill="black"/>
<path fill-rule="evenodd" clip-rule="evenodd" d="M26.6982 20.4936C27.1876 20.4932 27.2688 20.4022 27.4245 20.2277C27.5147 20.1266 27.6299 19.9974 27.864 19.8417C28.5124 20.2645 29.2775 20.4858 30.0581 20.4763L32.5367 19.5962C33.2349 19.0352 33.7139 18.2578 33.8936 17.3941C34.0732 16.5305 33.9426 15.633 33.5235 14.8519C33.1045 14.0709 32.4225 13.4535 31.5916 13.1033C31.4013 12.2675 30.923 11.5201 30.2361 10.9853L27.8152 10.163L27.5427 10.1632C27.0037 9.39929 26.1951 8.8547 25.2705 8.63301L21.0814 8.35255C20.2189 8.423 19.4059 8.77376 18.7731 9.34839C18.4739 9.27998 18.1676 9.24465 17.8602 9.24307C17.1159 9.24516 16.3881 9.45687 15.7646 9.85263C15.1412 10.2484 14.6488 10.8113 14.3469 11.4734L12.3764 12.8341C11.8864 13.4814 11.6229 14.2647 11.6249 15.0687C11.6203 15.4048 11.6665 15.7398 11.7619 16.0629C11.2452 16.7166 10.9677 17.5194 10.9736 18.3441C10.9731 19.3005 11.3493 20.2206 12.0248 20.9153C12.0798 21.6 12.3262 22.257 12.7373 22.8152C13.1484 23.3734 13.7086 23.8115 14.3572 24.0822C15.1046 24.5374 15.7377 25.1498 16.2099 25.8745C16.6821 26.5992 16.8774 27.4177 16.9816 28.2698L21.0977 28.2664L21.0944 24.2888C21.0929 23.5826 21.2948 22.8901 21.6772 22.2898C21.7352 22.1988 21.7894 22.1104 21.8418 22.0249L21.8418 22.0248C22.1347 21.5467 22.3726 21.1584 22.9245 20.8932C23.5343 20.6655 24.0835 20.307 24.5313 19.8444C25.1701 20.268 25.9252 20.4943 26.6982 20.4936ZM13.9752 20.3584L21.9741 19.1057L16.782 13.3561L13.9752 20.3584ZM22.4697 15.6823L24.8379 11.282L29.3211 13.6061L26.953 18.0064L22.4697 15.6823Z" fill="black"/>
<path d="M33.978 23.842C33.9787 24.6705 33.3077 25.3426 32.4793 25.3433C31.6508 25.3439 30.9787 24.6729 30.978 23.8445C30.9774 23.0161 31.6484 22.3439 32.4768 22.3433C33.3052 22.3426 33.9774 23.0136 33.978 23.842Z" fill="black"/>
<path fill-rule="evenodd" clip-rule="evenodd" d="M20.985 32.3527L16.985 32.356L16.9834 30.356L20.9834 30.3527L20.985 32.3527Z" fill="black"/>
<path fill-rule="evenodd" clip-rule="evenodd" d="M20.9883 36.3527L16.9883 36.356L16.9867 34.356L20.9867 34.3527L20.9883 36.3527Z" fill="black"/>
<path fill-rule="evenodd" clip-rule="evenodd" d="M20.9916 40.3527L16.9916 40.356L16.99 38.356L20.99 38.3527L20.9916 40.3527Z" fill="black"/>
</svg>

<svg
  xmlns="http://www.w3.org/2000/svg"
  width="24"
  height="24"
  viewBox="0 0 24 24"
  fill="none"
  stroke="currentColor"
  stroke-width="2"
  stroke-linecap="round"
  stroke-linejoin="round"
>
  <path
    fill-rule="evenodd"
    d="m37.265 25.955-.166-.353c-.715-1.524-.923-3.138-.987-4.57a38 38 0 0 1-.02-2.09q0-.136.003-.267c.006-.566.012-1.08 0-1.574a10.15 10.15 0 0 0-1.772-5.473 12.1 12.1 0 0 0-4.803-3.58l-.033-.014-.033-.015a19.6 19.6 0 0 0-8.158-1.755h-.003a13.48 13.48 0 0 0-9.435 3.841 12.9 12.9 0 0 0-3.884 9.215c.002 2.044.597 4.376 1.63 6.532 1.036 2.162 2.44 3.997 3.917 5.133l.78.6.007 8.916c.325.402.957.898 1.904 1.328 1.159.526 2.323.739 2.997.683l.081-.006h.082c1.956-.002 2.871-.556 3.265-.892a2 2 0 0 0 .308-.327l-.004-5.536 2.497.644h.004l.012.003.08.02c.073.016.189.042.34.072.302.06.742.138 1.272.203 1.077.132 2.45.202 3.776.006 1.338-.197 2.452-.637 3.218-1.371.714-.684 1.341-1.83 1.34-3.925l-.002-1.71 1.681-.266h.002l.008-.002.066-.012c.063-.013.16-.033.282-.064.249-.062.567-.156.877-.287.322-.136.553-.278.69-.398a1 1 0 0 0 .06-.058 1.3 1.3 0 0 0-.094-.342c-.11-.278-.297-.6-.536-.932a8.6 8.6 0 0 0-.936-1.086l-.021-.02-.009-.008v-.001zM24.943 38.332s.802.207 2 .351c3.541.427 10.543.311 10.537-7.282 0 0 3.302-.522 3.635-2.41s-2.205-4.239-2.205-4.239c-.864-1.842-.84-4.012-.816-6.05.007-.563.014-1.116.001-1.65a12.15 12.15 0 0 0-2.166-6.618 14.1 14.1 0 0 0-5.647-4.236 21.6 21.6 0 0 0-8.99-1.934 15.48 15.48 0 0 0-10.836 4.415 14.9 14.9 0 0 0-4.482 10.643c.004 4.8 2.758 10.502 6.328 13.249l.007 8.494c1.014 2.122 4.834 3.625 7.065 3.44 4.738-.003 5.572-2.74 5.572-2.74z"
    clip-rule="evenodd"
  />
  <path
    fill-rule="evenodd"
    d="M26.698 20.494c.49 0 .57-.092.726-.266.09-.101.206-.23.44-.386a3.93 3.93 0 0 0 2.194.634l2.479-.88a3.83 3.83 0 0 0 1.357-2.202 3.75 3.75 0 0 0-.37-2.542 3.9 3.9 0 0 0-1.932-1.749 3.74 3.74 0 0 0-1.356-2.118l-2.42-.822h-.273a3.89 3.89 0 0 0-2.273-1.53l-4.189-.28a3.9 3.9 0 0 0-2.308.995 3.933 3.933 0 0 0-3.008.504 3.8 3.8 0 0 0-1.418 1.621l-1.97 1.361a3.7 3.7 0 0 0-.752 2.235q-.007.506.137.994a3.685 3.685 0 0 0 .263 4.852c.055.685.301 1.342.712 1.9s.972.996 1.62 1.267a5.8 5.8 0 0 1 1.853 1.793c.472.724.667 1.543.772 2.395l4.116-.004-.004-3.977c-.001-.706.2-1.399.583-2q.086-.136.165-.264c.293-.478.53-.867 1.082-1.132a4.36 4.36 0 0 0 1.607-1.049c.64.424 1.394.65 2.167.65m-12.723-.136 8-1.252-5.193-5.75zm8.495-4.676 2.368-4.4 4.483 2.324-2.368 4.4z"
    clip-rule="evenodd"
  />
  <path d="M33.978 23.842a1.5 1.5 0 1 1-3 .003 1.5 1.5 0 0 1 3-.003" />
  <path
    fill-rule="evenodd"
    d="m20.985 32.353-4 .003-.002-2 4-.003z"
    clip-rule="evenodd"
  />
  <path
    fill-rule="evenodd"
    d="m20.988 36.353-4 .003-.001-2 4-.003z"
    clip-rule="evenodd"
  />
  <path
    fill-rule="evenodd"
    d="m20.992 40.353-4 .003-.002-2 4-.003z"
    clip-rule="evenodd"
  />
</svg>
